projects/oblique/icons/Book.svg

<?xml version="1.0" encoding="UTF-8"?><svg id="a" xmlns="http://www.w3.org/2000/svg" viewBox="0 0 24 24"><path d="M18.47754,5.92139H5.60938v5.28955h12.86816v-5.28955ZM16.97754,9.71094H7.10938v-2.28955h9.86816v2.28955ZM20,2.75049l.75-.00049v-1.5l-15.48633.00049c-1.10986,0-2.01318.87939-2.01318,1.96045l-.00049,16.44531c0,1.70605,1.40479,3.09375,3.13135,3.09375h14.36865V3.67188h-.75c-.2832,0-.51318-.20654-.51318-.46094,0-.25391.22998-.46045.51318-.46045ZM5.26367,2.75049h12.7793c-.03662.14795-.05615.30176-.05615.46045s.01953.31299.05615.46094H5.26367c-.2832,0-.51318-.20654-.51318-.46094,0-.25391.22998-.46045.51318-.46045ZM19.25,21.25H6.38135c-.89941,0-1.63135-.71484-1.63135-1.59375l.00049-14.54883c.16064.04102.3291.06348.50293.06445h13.99658v16.07812Z"/></svg>

<svg xmlns="http://www.w3.org/2000/svg" viewBox="0 0 24 24"><title>Book</title><path d="M18.47754,5.92139H5.60938v5.28955H18.47754Zm-1.5,3.78955H7.10938V7.42139h9.86816Z" fill="#171717"/><path d="M20,2.75049,20.75,2.75V1.25L5.26367,1.25049A1.98969,1.98969,0,0,0,3.25049,3.21094L3.25,19.65625A3.11619,3.11619,0,0,0,6.38135,22.75H20.75V3.67188H20a.48943.48943,0,0,1-.51318-.46094A.48936.48936,0,0,1,20,2.75049Zm-14.73633,0H18.043a1.918,1.918,0,0,0,0,.92139H5.26367a.48943.48943,0,0,1-.51318-.46094A.48936.48936,0,0,1,5.26367,2.75049ZM19.25,21.25H6.38135A1.6147,1.6147,0,0,1,4.75,19.65625L4.75049,5.10742a2.07787,2.07787,0,0,0,.50293.06446H19.25Z" fill="#171717"/></svg>
